icons/sun-foggy-line.svg

<svg xmlns="http://www.w3.org/2000/svg" width="24" height="24" fill="none"><g clip-path="url(#a)"><g><path fill="#121212" d="M8 12H10V14H4V12H6C6 10.8133 6.35189 9.65327 7.01118 8.66658C7.67047 7.67988 8.60754 6.91085 9.7039 6.45672C10.8003 6.0026 12.0067 5.88378 13.1705 6.11529C14.3344 6.3468 15.4035 6.91824 16.2426 7.75736C17.0818 8.59647 17.6532 9.66557 17.8847 10.8295C18.1162 11.9933 17.9974 13.1997 17.5433 14.2961C17.0892 15.3925 16.3201 16.3295 15.3334 16.9888C14.3467 17.6481 13.1867 18 12 18V16C12.7911 16 13.5645 15.7654 14.2223 15.3259C14.8801 14.8864 15.3928 14.2616 15.6955 13.5307C15.9983 12.7998 16.0775 11.9956 15.9231 11.2196C15.7688 10.4437 15.3878 9.73098 14.8284 9.17157C14.269 8.61216 13.5563 8.2312 12.7804 8.07686C12.0044 7.92252 11.2002 8.00173 10.4693 8.30448C9.73836 8.60723 9.11365 9.11992 8.67412 9.77772C8.2346 10.4355 8 11.2089 8 12ZM6 20H15V22H6V20ZM2 16H10V18H2V16ZM11 1H13V4H11V1ZM3.515 4.929L4.929 3.515L7.05 5.636L5.636 7.05L3.515 4.93V4.929ZM16.95 18.364L18.364 16.95L20.485 19.071L19.071 20.485L16.95 18.364ZM19.071 3.514L20.485 4.929L18.364 7.05L16.95 5.636L19.071 3.515V3.514ZM23 11V13H20V11H23Z"/></g></g><defs><clipPath id="a"><rect width="24" height="24" fill="white"/></clipPath></defs></svg>

<svg width="24" height="24" fill="none" xmlns="http://www.w3.org/2000/svg"><g clip-path="url(#a)"><path d="M8 12h2v2H4v-2h2a6 6 0 1 1 6 6v-2a4 4 0 1 0-4-4Zm-2 8h9v2H6v-2Zm-4-4h8v2H2v-2Zm9-15h2v3h-2V1ZM3.515 4.929l1.414-1.414L7.05 5.636 5.636 7.05 3.515 4.93v-.001ZM16.95 18.364l1.414-1.414 2.121 2.121-1.414 1.414-2.121-2.121Zm2.121-14.85 1.414 1.415-2.121 2.121-1.414-1.414 2.121-2.121v-.001ZM23 11v2h-3v-2h3Z" /></g><defs><clipPath id="a"><path fill="#fff" d="M0 0h24v24H0z"/></clipPath></defs></svg>
